src/lib/packages/icons/src/assets/filled/box-minus.svg

<svg width="24" height="24" viewBox="0 0 24 24" fill="none" xmlns="http://www.w3.org/2000/svg">
<path d="M9.47998 11.15C9.72998 11.26 9.99 11.33 10.25 11.39V20.91C10.09 20.87 9.93003 20.81 9.78003 20.74L3.78003 18.07C2.70003 17.59 2 16.52 2 15.33V8.67C2 8.4 2.03999 8.12999 2.10999 7.87999L9.47998 11.15ZM19.13 6.55999C18.87 6.29999 18.57 6.07998 18.22 5.92998L12.22 3.26C11.44 2.91 10.56 2.91 9.78003 3.26L3.78003 5.92998C3.43003 6.07998 3.13 6.29999 2.87 6.55999L10.08 9.76998C10.66 10.03 11.33 10.03 11.92 9.76998L19.13 6.55999ZM12.559 16.151C12.927 13.57 15.1889 11.57 17.7939 11.479C18.4299 11.457 19.036 11.537 19.604 11.714C19.801 11.775 20 11.641 20 11.435V8.64498C20 8.37498 19.96 8.105 19.89 7.855L12.52 11.125C12.27 11.225 12.01 11.305 11.75 11.365V20.885C11.769 20.897 11.769 20.897 11.788 20.909L13.192 20.278C13.359 20.203 13.414 20 13.317 19.844C12.663 18.793 12.363 17.523 12.559 16.151ZM22 17C22 19.21 20.21 21 18 21C15.79 21 14 19.21 14 17C14 14.79 15.79 13 18 13C20.21 13 22 14.79 22 17ZM19.75 17C19.75 16.72 19.53 16.5 19.25 16.5H16.75C16.47 16.5 16.25 16.72 16.25 17C16.25 17.27 16.47 17.5 16.75 17.5H19.25C19.53 17.5 19.75 17.27 19.75 17Z" fill="currentColor"/>
</svg>

<svg xmlns="http://www.w3.org/2000/svg" width="24" height="24" fill="none"><path fill="currentColor" d="M9.48 11.15c.25.11.51.18.77.24v9.52c-.16-.04-.32-.1-.47-.17l-6-2.67A2.996 2.996 0 0 1 2 15.33V8.67c0-.27.04-.54.11-.79l7.37 3.27Zm9.65-4.59c-.26-.26-.56-.48-.91-.63l-6-2.67c-.78-.35-1.66-.35-2.44 0l-6 2.67c-.35.15-.65.37-.91.63l7.21 3.21c.58.26 1.25.26 1.84 0l7.21-3.21Zm-6.571 9.591c.368-2.581 2.63-4.581 5.235-4.672a5.426 5.426 0 0 1 1.81.235c.197.061.396-.073.396-.279v-2.79c0-.27-.04-.54-.11-.79l-7.37 3.27c-.25.1-.51.18-.77.24v9.52l.038.024 1.404-.631a.298.298 0 0 0 .125-.434c-.654-1.051-.954-2.321-.758-3.693ZM22 17c0 2.21-1.79 4-4 4s-4-1.79-4-4 1.79-4 4-4 4 1.79 4 4Zm-2.25 0c0-.28-.22-.5-.5-.5h-2.5c-.28 0-.5.22-.5.5 0 .27.22.5.5.5h2.5c.28 0 .5-.23.5-.5Z"/></svg>
